dist/svg/u1F638.svg

<?xml version="1.0" encoding="UTF-8"?><svg id="Layer_1" xmlns="http://www.w3.org/2000/svg" viewBox="0 0 40 40"><g><g><path id="SVGID" d="M26.56156,4.83946c-.6036-.53633-1.54692-.36313-1.92433,.3507l-1.59388,3.01464c-.28237,.53407-.83695,.86818-1.44108,.86818h-3.20478c-.60412,0-1.15871-.33411-1.44108-.86818l-1.5939-3.01468c-.3774-.71381-1.32071-.887-1.92428-.35065C8.29374,9.41106,2,15.98341,2,20.7822c0,8.11449,8.05875,14.69221,18,14.69221s18-6.57772,18-14.69221c0-4.79881-6.2938-11.37146-11.43844-15.94274Z" style="fill:#ffb72d;"/><path d="M37.69436,18.83266l-3.38329,1.72463c-.78332,.39924-.78332,1.51836,0,1.91761l3.20772,1.63502c.30434-1.07085,.48121-2.18132,.48121-3.32773,0-.62239-.11007-1.2757-.30564-1.94954Z"/><path d="M2.30564,18.83266l3.38329,1.72463c.78332,.39924,.78332,1.51836,0,1.91761l-3.20772,1.63502c-.30434-1.07085-.48121-2.18132-.48121-3.32773,0-.62239,.11007-1.2757,.30564-1.94954Z"/></g><g><path id="SVGID-2" d="M12.13427,22.91956c-.97709,0-1.42921,.73173-1.2359,1.52132,.85568,3.49501,4.60179,6.12662,9.09348,6.12662s8.2378-2.63161,9.09348-6.12662c.19331-.78959-.06057-1.44358-1.03766-1.44358l-15.91339-.07774Z" style="fill:#ff5e00;"/><path d="M28.04767,22.9973c-1.68952,1.26546-4.59948,2.10096-7.90592,2.10096-3.37368,0-6.3346-.86983-8.00747-2.17869l15.91339,.07774Z" style="fill:#fff;"/></g><path d="M19.10047,18.7802h1.79906c.88139,0,1.35192,.82374,.77073,1.34928l-.89953,.81338c-.40836,.36925-1.13309,.36925-1.54145,0l-.89953-.81338c-.5812-.52553-.11066-1.34928,.77073-1.34928Z" style="fill:#ff5e01;"/><g><path d="M12.82179,17.50373c-.22703,.11205-.48801-.08454-.4376-.33265,.28011-1.37863,1.46627-2.41395,2.88703-2.41395s2.60693,1.03533,2.88703,2.41395c.05041,.24811-.21057,.4447-.4376,.33265-.49547-.24454-1.34019-.55293-2.44943-.55293s-1.95397,.30839-2.44943,.55293Z"/><path d="M27.17821,17.50373c.22703,.11205,.48801-.08454,.4376-.33265-.28011-1.37863-1.46627-2.41395-2.88703-2.41395s-2.60693,1.03533-2.88703,2.41395c-.05041,.24811,.21057,.4447,.4376,.33265,.49547-.24454,1.34019-.55293,2.44943-.55293,1.10924,0,1.95397,.30839,2.44943,.55293Z"/></g></g><rect width="40" height="40" style="fill:none;"/></svg>

<svg id="Layer_1" data-name="Layer 1" xmlns="http://www.w3.org/2000/svg" viewBox="0 0 40 40"><defs><style>.cls-1{fill:#ffb72d;}.cls-2{fill:#ff5e00;}.cls-3{fill:#fff;}.cls-4{fill:#ff5e01;}.cls-5{fill:none;}</style></defs><path id="SVGID" class="cls-1" d="M26.562,4.839a1.243,1.243,0,0,0-1.925.351L23.043,8.205a1.63,1.63,0,0,1-1.441.868H18.4a1.631,1.631,0,0,1-1.441-.868L15.363,5.19a1.243,1.243,0,0,0-1.925-.351C8.294,9.411,2,15.983,2,20.782,2,28.9,10.059,35.474,20,35.474S38,28.9,38,20.782C38,15.983,31.706,9.411,26.562,4.839Z"/><path d="M37.694,18.833l-3.383,1.724a1.077,1.077,0,0,0,0,1.918l3.208,1.635A12.148,12.148,0,0,0,38,20.782,7.02,7.02,0,0,0,37.694,18.833Z"/><path d="M2.306,18.833l3.383,1.724a1.077,1.077,0,0,1,0,1.918L2.481,24.11A12.148,12.148,0,0,1,2,20.782,7.02,7.02,0,0,1,2.306,18.833Z"/><path id="SVGID-2" data-name="SVGID" class="cls-2" d="M12.134,22.92A1.173,1.173,0,0,0,10.9,24.441c.856,3.5,4.6,6.127,9.094,6.127s8.238-2.632,9.093-6.127c.194-.79-.06-1.444-1.037-1.444Z"/><path class="cls-3" d="M28.048,23a13.753,13.753,0,0,1-7.906,2.1c-3.374,0-6.335-.87-8.008-2.178Z"/><path class="cls-4" d="M19.1,18.78h1.8c.881,0,1.351.824.77,1.349l-.9.814a1.212,1.212,0,0,1-1.542,0l-.9-.814C17.749,19.6,18.219,18.78,19.1,18.78Z"/><path d="M12.822,17.5a.307.307,0,0,1-.438-.333,2.933,2.933,0,0,1,5.774,0,.307.307,0,0,1-.437.333,5.7,5.7,0,0,0-4.9,0Z"/><path d="M27.178,17.5a.307.307,0,0,0,.438-.333,2.933,2.933,0,0,0-5.774,0,.307.307,0,0,0,.437.333,5.7,5.7,0,0,1,4.9,0Z"/><rect class="cls-5" width="40" height="40"/></svg>
